!!!!SEGMENT: Any2011-Da_pacem_Domine--Newberry_Partbooks.krn
!!!id: Any2011
!!!AGN: Motet
!!!voices: 5
!!!COM: Anonymous
!!!OTL: Da pacem, Domine (Newberry Partbooks)
**kern	**kern	**kern	**kern	**kern
*part5	*part4	*part3	*part2	*part1
*staff5	*staff4	*staff3	*staff2	*staff1
*I"Bassus	*I"Tenor II	*I"Tenor I	*I"Altus	*I"Superius
*I'B	*I'T. II	*I'T. I	*I'A	*I'S
*clefF4	*clefGv2	*clefGv2	*clefGv2	*clefG2
*k[b-]	*k[b-]	*k[b-]	*k[b-]	*k[b-]
*F:	*F:	*F:	*F:	*F:
*M2/1	*M2/1	*M2/1	*M2/1	*M2/1
*met(C|)	*met(C|)	*met(C|)	*met(C|)	*met(C|)
!!section: Prima pars: Da pacem, Domine
!!!OMD: Prima pars: Da pacem, Domine
0r	0r	0r	1G	0r
.	.	.	1F	.
=1	=1	=1	=1	=1
0r	0r	0r	1G	1g
.	.	.	2r	1f
.	.	.	[2B-y	.
=2	=2	=2	=2	=2
0r	0r	0r	2B-]	1g
.	.	.	2.c	.
.	.	.	.	2r
.	.	.	4B-y	.
.	.	.	[2B-y	[2b-y
=3	=3	=3	=3	=3
0r	0r	1r	2B-]	2b-]
.	.	.	2A	2.cc
.	.	1d	1B-y	.
.	.	.	.	4b-y
.	.	.	.	[2b-y
=4	=4	=4	=4	=4
0r	1r	1c	1G	2b-]
.	.	.	.	2a
.	1G	1d	2r	1b-y
.	.	.	[2B-y	.
=5	=5	=5	=5	=5
1D	1F	2r	2B-]	1r
.	.	1f	2A	.
1C	1G	.	1c	2r
.	.	2e	.	2g
=6	=6	=6	=6	=6
1D	0r	2.f	1.F	2b-y
.	.	.	.	1a
.	.	8eL	.	.
.	.	8dJ	.	.
1F	.	2c	.	.
.	.	2A	[2f	[2cc
=7	=7	=7	=7	=7
1G	1B-y	2B-y	2f]	4cc]
.	.	.	.	4b-y
.	.	2G	2e	1b-y
1F	1c	2.A	1f	.
.	.	.	.	2a
.	.	4F	.	.
=8	=8	=8	=8	=8
2.BB-y	1B-y	1F	2r	2.b-y
.	.	.	1d	.
4C	.	.	.	8aL
.	.	.	.	8gJ
2D	2r	1r	.	4f
.	.	.	.	4g
2C	[2A	.	2e	[2a
=9	=9	=9	=9	=9
1D	2A]	1r	1f	2a]
.	2B-y	.	.	4g
.	.	.	.	4f
2C	1c	2E	2e	1a
2AA	.	2F	2c	.
=10	=10	=10	=10	=10
1GG	2B-y	1G	0d	1b-y
.	2G	.	.	.
1D	2A	2F	.	4a
.	.	.	.	4f
.	2F	2D	.	[2a
=11	=11	=11	=11	=11
0r	1G	1E	1c	4a]
.	.	.	.	4g
.	.	.	.	1g
.	1A	1D	[1d	.
.	.	.	.	2f#i
=12	=12	=12	=12	=12
2r	0G	1B-y	0d]	0g
2GG	.	.	.	.
4GG	.	1B-y	.	.
4AA	.	.	.	.
4BB-y	.	.	.	.
4C	.	.	.	.
=13	=13	=13	=13	=13
2D	0r	2A	0r	1r
2.BB-y	.	1B-y	.	.
.	.	.	.	1f
4C	.	.	.	.
4D	.	4A	.	.
4E	.	4G	.	.
=14	=14	=14	=14	=14
2F	1F	2A	1r	1f
2.BB-y	.	2B-y	.	.
.	1F	2F	1f	1r
4C	.	.	.	.
4D	.	[2B-y	.	.
4E	.	.	.	.
=15	=15	=15	=15	=15
1F	1r	2B-]	1f	0r
.	.	2A	.	.
[1BB-y	1B-y	2G	2.d	.
.	.	[2F	.	.
.	.	.	4c	.
=16	=16	=16	=16	=16
2BB-]	1B-y	2F]	4d	0r
.	.	.	4e	.
2BB-y	.	2F	1f	.
2C	1G	1c	.	.
2C	.	.	2e	.
=17	=17	=17	=17	=17
2D	1F	2A	0f	0r
2.BB-y	.	1d	.	.
.	2.B-y	.	.	.
4C	.	.	.	.
4D	.	4c	.	.
4E	4c	4B-y	.	.
=18	=18	=18	=18	=18
2F	2d	2A	0r	2r
2.G	2.e-X	2B-y	.	2b-y
.	.	[1G	.	1b-y
4F	4d	.	.	.
4E	[2d	.	.	.
4D	.	.	.	.
=19	=19	=19	=19	=19
1E-i	2d]	1G]	2r	1g
.	2c	.	2G	.
2D	[1d	2r	2A	1f
2BB-y	.	[2F	[2B-y	.
=20	=20	=20	=20	=20
1BB-y	1d]	2F]	4B-]	2.b-y
.	.	.	4c	.
.	.	1B-y	4d	.
.	.	.	4e	4cc
1r	1r	.	4f	2dd
.	.	.	4d	.
.	.	2c	[2g	[2ee-i
=21	=21	=21	=21	=21
0r	1r	1d	4g]	4ee-]
.	.	.	4f	4dd
.	.	.	4e	1dd
.	.	.	4d	.
.	2r	1A	1e	.
.	2A	.	.	2cc#i
=22	=22	=22	=22	=22
1D	1A	1F	0d	0dd
1D	1F	1r	.	.
=23	=23	=23	=23	=23
2C	2G	0r	1r	0r
2BB-y	2.B-y	.	.	.
1C	.	.	2r	.
.	4A	.	.	.
.	4A	.	2c	.
.	8GL	.	.	.
.	8AJ	.	.	.
=24	=24	=24	=24	=24
0BB-y	1B-y	2r	2d	1dd
.	.	2F	2.f	.
.	1F	1B-y	.	1dd
.	.	.	4e	.
.	.	.	4f	.
.	.	.	4d	.
=25	=25	=25	=25	=25
0r	0r	2A	4e	2cc
.	.	.	4f	.
.	.	2G	1g	2b-y
.	.	1A	.	1cc
.	.	.	2f#i	.
=26	=26	=26	=26	=26
2r	1d	2G	1g	1b-y
4GG	.	2.B-y	.	.
4AA	.	.	.	.
4BB-y	1d	.	2d	2.f
4C	.	4A	.	.
4D	.	[2F	[2f	.
4E	.	.	.	4g
=27	=27	=27	=27	=27
2F	2c	4F]	2f]	4a
.	.	4E	.	4f
2BB-y	2B-y	4F	2f	1b-y
.	.	4G	.	.
1F	1c	1A	2f	.
.	.	.	2f	2a
=28	=28	=28	=28	=28
1BB-y	0B-y	2r	0d	0b-y
.	.	2F	.	.
2r	.	1F	.	.
2BB-y	.	.	.	.
=29	=29	=29	=29	=29
1BB-y	0r	1D	2r	0r
.	.	.	1d	.
1AA	.	2E	.	.
.	.	[2F	2c	.
=30	=30	=30	=30	=30
1BB-y	2r	4F]	1.d	0r
.	.	4E	.	.
.	2B-y	4F	.	.
.	.	4D	.	.
1GG	1B-y	1G	.	.
.	.	.	2d	.
=31	=31	=31	=31	=31
1.D	1.A	1F	2d	0r
.	.	.	1f	.
.	.	1D	.	.
4C	2B-y	.	4e	.
4BB-y	.	.	4d	.
=32	=32	=32	=32	=32
1AA	1c	1A	2f	0r
.	.	.	1e	.
1D	2B-y	1F	.	.
.	[2A	.	2d	.
=33	=33	=33	=33	=33
2.C	4A]	2r	1e	0r
.	4G	.	.	.
.	1G	2c	.	.
4BB-y	.	.	.	.
1AA	.	1c	2r	.
.	2F#i	.	2c	.
=34	=34	=34	=34	=34
1.GG	1G	2B-y	2e	2r
.	.	1G	2.d	2b-y
.	2r	.	.	1b-y
.	.	.	4c	.
2GG	2D	[2d	4d	.
.	.	.	4e	.
=35	=35	=35	=35	=35
1D	1D	2d]	1.f	1.a
.	.	4c	.	.
.	.	4B-y	.	.
1D	1F	1A	.	.
.	.	.	4e	2b-y
.	.	.	4d	.
=36	=36	=36	=36	=36
1C	1G	1r	1e	1cc
2.D	1d	2r	[1f	2b-y
.	.	[2A	.	[2a
4E	.	.	.	.
=37	=37	=37	=37	=37
2F	2c	2A]	2f]	4a]
.	.	.	.	4g
2G	2B-y	2.d	2d	1g
1D	1A	.	1d	.
.	.	4c	.	.
.	.	4B-y	.	2f#i
.	.	4A	.	.
=38	=38	=38	=38	=38
2r	1.G	2B-y	2r	0g
2GG	.	2G	2B-y	.
4GG	.	1d	1B-y	.
4AA	.	.	.	.
4BB-y	2G	.	.	.
4C	.	.	.	.
=39	=39	=39	=39	=39
1D	1F	2r	1.A	0r
.	.	2F	.	.
2r	2.D	1F	.	.
2BB-y	.	.	[2B-y	.
.	4E	.	.	.
=40	=40	=40	=40	=40
1BB-y	2F	1D	4B-]	0r
.	.	.	4c	.
.	2G	.	1d	.
1AA	1A	2E	.	.
.	.	[2F	2c	.
=41	=41	=41	=41	=41
1BB-y	2r	4F]	1.d	0r
.	.	4E	.	.
.	2B-y	4F	.	.
.	.	4D	.	.
1GG	1B-y	1G	.	.
.	.	.	[2d	.
=42	=42	=42	=42	=42
1.D	1.A	1F	4d]	0r
.	.	.	4e	.
.	.	.	1f	.
.	.	1D	.	.
4C	2B-y	.	4e	.
4BB-y	.	.	4d	.
=43	=43	=43	=43	=43
1AA	1c	1A	2f	0r
.	.	.	1e	.
1D	2B-y	1F	.	.
.	[2A	.	2d	.
=44	=44	=44	=44	=44
2.C	4A]	2r	1e	0r
.	4G	.	.	.
.	1G	2c	.	.
4BB-y	.	.	.	.
1AA	.	1c	2r	.
.	2F#i	.	2c	.
=45	=45	=45	=45	=45
1.GG	1G	2B-y	2e	2r
.	.	1G	2.d	2b-y
.	2r	.	.	1b-y
.	.	.	4c	.
2GG	2D	[2d	4d	.
.	.	.	4e	.
=46	=46	=46	=46	=46
1D	1D	2d]	1.f	1.a
.	.	4c	.	.
.	.	4B-y	.	.
1D	1F	1A	.	.
.	.	.	4e	2b-y
.	.	.	4d	.
=47	=47	=47	=47	=47
1C	1G	1r	1e	1cc
2.D	1d	2r	[1f	2b-y
.	.	[2A	.	[2a
4E	.	.	.	.
=48	=48	=48	=48	=48
2F	2c	2A]	2f]	4a]
.	.	.	.	4g
2G	2B-y	2.d	2d	1g
1D	1A	.	[1d	.
.	.	4c	.	.
.	.	4B-y	.	2f#i
.	.	4A	.	.
=49	=49	=49	=49	=49
2GG	[0Gl	2B-y	2d]	[0gl
1C	.	2G	2c	.
.	.	1c	1e	.
4BB-y	.	.	.	.
4AA	.	.	.	.
=50	=50	=50	=50	=50
00GGl	00G]	00B-yl	00dl	00g]
==	==	==	==	==
*-	*-	*-	*-	*-
!!!system-decoration: [*]
!!!RDF**kern: i = editorial accidental
!!!RDF**kern: l = terminal long
!!!ENC: Benjamin Ory
!!!END: 2024/5/21
!!!EED: Benjamin Ory
!!!EEV: 2024/05/21
!!!YEC: Copyright 2024 Benjamin Ory, All Rights Reserved
!!!ONB: Translated from MusicXML on 2024/05/21
